images/50406964.svg

<?xml version="1.0" encoding="UTF-8"?>
<svg xmlns="http://www.w3.org/2000/svg" xmlns:xlink="http://www.w3.org/1999/xlink" width="300pt" height="300pt" viewBox="0 0 300 300" version="1.1">
<defs>
<g>
<symbol overflow="visible" id="glyph0-0">
<path style="stroke:none;" d="M 0.546875 1.9375 L 0.546875 -7.75 L 6.046875 -7.75 L 6.046875 1.9375 Z M 1.171875 1.328125 L 5.4375 1.328125 L 5.4375 -7.140625 L 1.171875 -7.140625 Z M 1.171875 1.328125 "/>
</symbol>
<symbol overflow="visible" id="glyph0-1">
<path style="stroke:none;" d="M 2.171875 -3.828125 L 2.171875 -0.890625 L 3.90625 -0.890625 C 4.488281 -0.890625 4.921875 -1.007812 5.203125 -1.25 C 5.484375 -1.488281 5.625 -1.859375 5.625 -2.359375 C 5.625 -2.859375 5.484375 -3.226562 5.203125 -3.46875 C 4.921875 -3.707031 4.488281 -3.828125 3.90625 -3.828125 Z M 2.171875 -7.125 L 2.171875 -4.703125 L 3.765625 -4.703125 C 4.296875 -4.703125 4.691406 -4.800781 4.953125 -5 C 5.210938 -5.207031 5.34375 -5.515625 5.34375 -5.921875 C 5.34375 -6.328125 5.210938 -6.628906 4.953125 -6.828125 C 4.691406 -7.023438 4.296875 -7.125 3.765625 -7.125 Z M 1.078125 -8.015625 L 3.84375 -8.015625 C 4.675781 -8.015625 5.316406 -7.84375 5.765625 -7.5 C 6.210938 -7.15625 6.4375 -6.664062 6.4375 -6.03125 C 6.4375 -5.539062 6.320312 -5.148438 6.09375 -4.859375 C 5.863281 -4.578125 5.523438 -4.398438 5.078125 -4.328125 C 5.609375 -4.210938 6.019531 -3.972656 6.3125 -3.609375 C 6.613281 -3.242188 6.765625 -2.789062 6.765625 -2.25 C 6.765625 -1.53125 6.519531 -0.972656 6.03125 -0.578125 C 5.550781 -0.191406 4.859375 0 3.953125 0 L 1.078125 0 Z M 1.078125 -8.015625 "/>
</symbol>
<symbol overflow="visible" id="glyph0-2">
<path style="stroke:none;" d="M 4.515625 -5.09375 C 4.410156 -5.15625 4.289062 -5.203125 4.15625 -5.234375 C 4.03125 -5.265625 3.890625 -5.28125 3.734375 -5.28125 C 3.171875 -5.28125 2.738281 -5.097656 2.4375 -4.734375 C 2.144531 -4.367188 2 -3.847656 2 -3.171875 L 2 0 L 1 0 L 1 -6.015625 L 2 -6.015625 L 2 -5.078125 C 2.195312 -5.441406 2.460938 -5.710938 2.796875 -5.890625 C 3.128906 -6.066406 3.535156 -6.15625 4.015625 -6.15625 C 4.085938 -6.15625 4.160156 -6.148438 4.234375 -6.140625 C 4.316406 -6.140625 4.410156 -6.128906 4.515625 -6.109375 Z M 4.515625 -5.09375 "/>
</symbol>
<symbol overflow="visible" id="glyph0-3">
<path style="stroke:none;" d="M 4.328125 -7.28125 C 3.546875 -7.28125 2.921875 -6.984375 2.453125 -6.390625 C 1.992188 -5.804688 1.765625 -5.007812 1.765625 -4 C 1.765625 -2.988281 1.992188 -2.1875 2.453125 -1.59375 C 2.921875 -1.007812 3.546875 -0.71875 4.328125 -0.71875 C 5.117188 -0.71875 5.742188 -1.007812 6.203125 -1.59375 C 6.660156 -2.1875 6.890625 -2.988281 6.890625 -4 C 6.890625 -5.007812 6.660156 -5.804688 6.203125 -6.390625 C 5.742188 -6.984375 5.117188 -7.28125 4.328125 -7.28125 Z M 4.328125 -8.171875 C 5.453125 -8.171875 6.351562 -7.789062 7.03125 -7.03125 C 7.707031 -6.28125 8.046875 -5.269531 8.046875 -4 C 8.046875 -2.738281 7.707031 -1.726562 7.03125 -0.96875 C 6.351562 -0.21875 5.453125 0.15625 4.328125 0.15625 C 3.203125 0.15625 2.300781 -0.21875 1.625 -0.96875 C 0.957031 -1.71875 0.625 -2.726562 0.625 -4 C 0.625 -5.269531 0.957031 -6.28125 1.625 -7.03125 C 2.300781 -7.789062 3.203125 -8.171875 4.328125 -8.171875 Z M 4.328125 -8.171875 "/>
</symbol>
<symbol overflow="visible" id="glyph0-4">
<path style="stroke:none;" d="M 1.078125 -8.015625 L 2.546875 -8.015625 L 6.09375 -1.3125 L 6.09375 -8.015625 L 7.15625 -8.015625 L 7.15625 0 L 5.6875 0 L 2.125 -6.703125 L 2.125 0 L 1.078125 0 Z M 1.078125 -8.015625 "/>
</symbol>
<symbol overflow="visible" id="glyph0-5">
<path style="stroke:none;" d="M 1.078125 -8.015625 L 2.171875 -8.015625 L 2.171875 -4.734375 L 6.109375 -4.734375 L 6.109375 -8.015625 L 7.1875 -8.015625 L 7.1875 0 L 6.109375 0 L 6.109375 -3.8125 L 2.171875 -3.8125 L 2.171875 0 L 1.078125 0 Z M 1.078125 -8.015625 "/>
</symbol>
</g>
</defs>
<g id="surface9521">
<rect x="0" y="0" width="300" height="300" style="fill:rgb(100%,100%,100%);fill-opacity:1;stroke:none;"/>
<path style="fill:none;stroke-width:1.2;stroke-linecap:butt;stroke-linejoin:miter;stroke:rgb(50%,30%,10%);stroke-opacity:1;stroke-miterlimit:10;" d="M 35.25 166.640625 L 47.730469 163.15625 "/>
<path style="fill:none;stroke-width:1.2;stroke-linecap:butt;stroke-linejoin:miter;stroke:rgb(0%,0%,0%);stroke-opacity:1;stroke-miterlimit:10;" d="M 47.730469 163.15625 L 60.214844 159.675781 "/>
<path style=" stroke:none;fill-rule:nonzero;fill:rgb(100%,100%,100%);fill-opacity:1;" d="M 23.25 160.140625 L 35.25 160.140625 L 35.25 173.140625 L 23.25 173.140625 Z M 23.25 160.140625 "/>
<g style="fill:rgb(50%,30%,10%);fill-opacity:1;">
  <use xlink:href="#glyph0-1" x="23.25" y="170.041992"/>
  <use xlink:href="#glyph0-2" x="30.571289" y="170.041992"/>
</g>
<path style="fill:none;stroke-width:1.2;stroke-linecap:butt;stroke-linejoin:miter;stroke:rgb(0%,0%,0%);stroke-opacity:1;stroke-miterlimit:10;" d="M 60.214844 159.675781 L 66.667969 134.574219 "/>
<path style="fill:none;stroke-width:1.2;stroke-linecap:butt;stroke-linejoin:miter;stroke:rgb(0%,0%,0%);stroke-opacity:1;stroke-miterlimit:10;" d="M 66.765625 158.683594 L 71.925781 138.601562 "/>
<path style="fill:none;stroke-width:1.2;stroke-linecap:butt;stroke-linejoin:miter;stroke:rgb(0%,0%,0%);stroke-opacity:1;stroke-miterlimit:10;" d="M 78.726562 177.8125 L 60.214844 159.675781 "/>
<path style="fill:none;stroke-width:1.2;stroke-linecap:butt;stroke-linejoin:miter;stroke:rgb(0%,0%,0%);stroke-opacity:1;stroke-miterlimit:10;" d="M 66.667969 134.574219 L 91.628906 127.609375 "/>
<path style="fill:none;stroke-width:1.2;stroke-linecap:butt;stroke-linejoin:miter;stroke:rgb(0%,0%,0%);stroke-opacity:1;stroke-miterlimit:10;" d="M 91.628906 127.609375 L 110.144531 145.746094 "/>
<path style="fill:none;stroke-width:1.2;stroke-linecap:butt;stroke-linejoin:miter;stroke:rgb(0%,0%,0%);stroke-opacity:1;stroke-miterlimit:10;" d="M 89.214844 133.777344 L 104.023438 148.289062 "/>
<path style="fill:none;stroke-width:1.2;stroke-linecap:butt;stroke-linejoin:miter;stroke:rgb(0%,0%,0%);stroke-opacity:1;stroke-miterlimit:10;" d="M 110.144531 145.746094 L 103.691406 170.847656 "/>
<path style="fill:none;stroke-width:1.2;stroke-linecap:butt;stroke-linejoin:miter;stroke:rgb(0%,0%,0%);stroke-opacity:1;stroke-miterlimit:10;" d="M 110.144531 145.746094 L 135.109375 138.785156 "/>
<path style="fill:none;stroke-width:1.2;stroke-linecap:butt;stroke-linejoin:miter;stroke:rgb(0%,0%,0%);stroke-opacity:1;stroke-miterlimit:10;" d="M 103.691406 170.847656 L 78.726562 177.8125 "/>
<path style="fill:none;stroke-width:1.2;stroke-linecap:butt;stroke-linejoin:miter;stroke:rgb(0%,0%,0%);stroke-opacity:1;stroke-miterlimit:10;" d="M 99.558594 165.671875 L 79.585938 171.242188 "/>
<path style="fill:none;stroke-width:1.2;stroke-linecap:butt;stroke-linejoin:miter;stroke:rgb(0%,0%,0%);stroke-opacity:1;stroke-miterlimit:10;" d="M 138.0625 139.542969 L 141.289062 126.992188 "/>
<path style="fill:none;stroke-width:1.2;stroke-linecap:butt;stroke-linejoin:miter;stroke:rgb(100%,0%,0%);stroke-opacity:1;stroke-miterlimit:10;" d="M 141.289062 126.992188 L 144.511719 114.441406 "/>
<path style="fill:none;stroke-width:1.2;stroke-linecap:butt;stroke-linejoin:miter;stroke:rgb(0%,0%,0%);stroke-opacity:1;stroke-miterlimit:10;" d="M 132.15625 138.023438 L 135.382812 125.472656 "/>
<path style="fill:none;stroke-width:1.2;stroke-linecap:butt;stroke-linejoin:miter;stroke:rgb(100%,0%,0%);stroke-opacity:1;stroke-miterlimit:10;" d="M 135.382812 125.472656 L 138.605469 112.921875 "/>
<path style="fill:none;stroke-width:1.2;stroke-linecap:butt;stroke-linejoin:miter;stroke:rgb(0%,0%,0%);stroke-opacity:1;stroke-miterlimit:10;" d="M 135.109375 138.785156 L 144.367188 147.851562 "/>
<path style="fill:none;stroke-width:1.2;stroke-linecap:butt;stroke-linejoin:miter;stroke:rgb(0%,0%,100%);stroke-opacity:1;stroke-miterlimit:10;" d="M 144.367188 147.851562 L 153.621094 156.921875 "/>
<path style=" stroke:none;fill-rule:nonzero;fill:rgb(100%,100%,100%);fill-opacity:1;" d="M 137.558594 107.179688 L 146.558594 107.179688 L 146.558594 120.179688 L 137.558594 120.179688 Z M 137.558594 107.179688 "/>
<g style="fill:rgb(100%,0%,0%);fill-opacity:1;">
  <use xlink:href="#glyph0-3" x="137.558594" y="117.081055"/>
</g>
<path style="fill:none;stroke-width:1.2;stroke-linecap:butt;stroke-linejoin:miter;stroke:rgb(0%,0%,100%);stroke-opacity:1;stroke-miterlimit:10;" d="M 153.621094 156.921875 L 166.105469 153.4375 "/>
<path style="fill:none;stroke-width:1.2;stroke-linecap:butt;stroke-linejoin:miter;stroke:rgb(0%,0%,0%);stroke-opacity:1;stroke-miterlimit:10;" d="M 166.105469 153.4375 L 178.585938 149.957031 "/>
<path style=" stroke:none;fill-rule:nonzero;fill:rgb(100%,100%,100%);fill-opacity:1;" d="M 145.621094 150.421875 L 162.621094 150.421875 L 162.621094 163.421875 L 145.621094 163.421875 Z M 145.621094 150.421875 "/>
<g style="fill:rgb(0%,0%,100%);fill-opacity:1;">
  <use xlink:href="#glyph0-4" x="145.621094" y="160.323242"/>
  <use xlink:href="#glyph0-5" x="153.604492" y="160.323242"/>
</g>
<path style="fill:none;stroke-width:1.2;stroke-linecap:butt;stroke-linejoin:miter;stroke:rgb(0%,0%,0%);stroke-opacity:1;stroke-miterlimit:10;" d="M 178.585938 149.957031 L 183.105469 137.8125 "/>
<path style="fill:none;stroke-width:1.2;stroke-linecap:butt;stroke-linejoin:miter;stroke:rgb(0%,0%,100%);stroke-opacity:1;stroke-miterlimit:10;" d="M 183.105469 137.8125 L 187.628906 125.667969 "/>
<path style="fill:none;stroke-width:1.2;stroke-linecap:butt;stroke-linejoin:miter;stroke:rgb(0%,0%,0%);stroke-opacity:1;stroke-miterlimit:10;" d="M 198.894531 166.0625 L 178.585938 149.957031 "/>
<path style="fill:none;stroke-width:1.2;stroke-linecap:butt;stroke-linejoin:miter;stroke:rgb(0%,0%,0%);stroke-opacity:1;stroke-miterlimit:10;" d="M 200.652344 159.671875 L 184.40625 146.789062 "/>
<path style="fill:none;stroke-width:1.2;stroke-linecap:butt;stroke-linejoin:miter;stroke:rgb(0%,0%,100%);stroke-opacity:1;stroke-miterlimit:10;" d="M 187.628906 125.667969 L 213.523438 126.757812 "/>
<path style=" stroke:none;fill-rule:nonzero;fill:rgb(100%,100%,100%);fill-opacity:1;" d="M 179.628906 119.167969 L 196.628906 119.167969 L 196.628906 132.167969 L 179.628906 132.167969 Z M 179.628906 119.167969 "/>
<g style="fill:rgb(0%,0%,100%);fill-opacity:1;">
  <use xlink:href="#glyph0-4" x="179.628906" y="129.069336"/>
  <use xlink:href="#glyph0-5" x="187.612305" y="129.069336"/>
</g>
<path style="fill:none;stroke-width:1.2;stroke-linecap:butt;stroke-linejoin:miter;stroke:rgb(0%,0%,100%);stroke-opacity:1;stroke-miterlimit:10;" d="M 213.523438 126.757812 L 217.003906 139.242188 "/>
<path style="fill:none;stroke-width:1.2;stroke-linecap:butt;stroke-linejoin:miter;stroke:rgb(0%,0%,0%);stroke-opacity:1;stroke-miterlimit:10;" d="M 217.003906 139.242188 L 220.484375 151.722656 "/>
<path style="fill:none;stroke-width:1.2;stroke-linecap:butt;stroke-linejoin:miter;stroke:rgb(0%,0%,100%);stroke-opacity:1;stroke-miterlimit:10;" d="M 208.34375 130.894531 L 211.128906 140.878906 "/>
<path style="fill:none;stroke-width:1.2;stroke-linecap:butt;stroke-linejoin:miter;stroke:rgb(0%,0%,0%);stroke-opacity:1;stroke-miterlimit:10;" d="M 211.128906 140.878906 L 213.914062 150.863281 "/>
<path style=" stroke:none;fill-rule:nonzero;fill:rgb(100%,100%,100%);fill-opacity:1;" d="M 209.523438 120.257812 L 217.523438 120.257812 L 217.523438 133.257812 L 209.523438 133.257812 Z M 209.523438 120.257812 "/>
<g style="fill:rgb(0%,0%,100%);fill-opacity:1;">
  <use xlink:href="#glyph0-4" x="209.523438" y="130.15918"/>
</g>
<path style="fill:none;stroke-width:1.2;stroke-linecap:butt;stroke-linejoin:miter;stroke:rgb(0%,0%,0%);stroke-opacity:1;stroke-miterlimit:10;" d="M 220.484375 151.722656 L 198.894531 166.0625 "/>
<path style="fill:none;stroke-width:1.2;stroke-linecap:butt;stroke-linejoin:miter;stroke:rgb(0%,0%,0%);stroke-opacity:1;stroke-miterlimit:10;" d="M 220.484375 151.722656 L 244.777344 160.761719 "/>
<path style="fill:none;stroke-width:1.2;stroke-linecap:butt;stroke-linejoin:miter;stroke:rgb(0%,0%,0%);stroke-opacity:1;stroke-miterlimit:10;" d="M 244.777344 160.761719 L 249.09375 186.320312 "/>
<path style="fill:none;stroke-width:1.2;stroke-linecap:butt;stroke-linejoin:miter;stroke:rgb(0%,0%,0%);stroke-opacity:1;stroke-miterlimit:10;" d="M 244.777344 160.761719 L 264.75 144.246094 "/>
</g>
</svg>

<svg xmlns="http://www.w3.org/2000/svg" xmlns:xlink="http://www.w3.org/1999/xlink" width="300pt" height="300pt" viewBox="0 0 300 300"><defs><symbol overflow="visible"><path d="M.547 1.938V-7.75h5.5v9.688zm.625-.61h4.266v-8.47H1.171zm0 0"/></symbol><symbol overflow="visible" id="a"><path d="M2.172-3.828V-.89h1.734c.582 0 1.016-.118 1.297-.36.28-.238.422-.61.422-1.11 0-.5-.14-.867-.422-1.11-.28-.237-.715-.358-1.297-.358zm0-3.297v2.422h1.594c.53 0 .925-.098 1.187-.297.258-.207.39-.516.39-.922s-.132-.707-.39-.906c-.262-.195-.656-.297-1.187-.297zm-1.094-.89h2.766c.832 0 1.472.17 1.922.515.445.344.67.836.67 1.47.002.49-.116.882-.342 1.17-.23.282-.57.462-1.016.532.53.117.942.355 1.234.72.3.366.454.82.454 1.358 0 .72-.246 1.277-.735 1.672C5.55-.19 4.86 0 3.954 0H1.078zm0 0"/></symbol><symbol overflow="visible" id="b"><path d="M4.516-5.094c-.106-.062-.227-.11-.36-.14-.125-.032-.265-.047-.422-.047-.562 0-.996.182-1.296.546C2.144-4.367 2-3.848 2-3.172V0H1v-6.016h1v.938c.195-.363.46-.633.797-.813.332-.176.738-.266 1.22-.266.07 0 .143.008.217.015.082 0 .176.01.282.03zm0 0"/></symbol><symbol overflow="visible" id="c"><path d="M4.328-7.28c-.78 0-1.406.296-1.875.89-.46.585-.687 1.382-.687 2.39 0 1.012.226 1.813.687 2.406.47.586 1.094.875 1.875.875.79 0 1.414-.288 1.875-.874.457-.593.688-1.394.688-2.406 0-1.008-.23-1.805-.687-2.39-.46-.594-1.086-.89-1.875-.89zm0-.892c1.125 0 2.024.383 2.703 1.14C7.708-6.28 8.048-5.27 8.048-4c0 1.262-.34 2.273-1.016 3.03C6.353-.22 5.454.157 4.33.157S2.3-.22 1.625-.97c-.668-.75-1-1.757-1-3.03 0-1.27.332-2.28 1-3.03.676-.76 1.578-1.142 2.703-1.142zm0 0"/></symbol><symbol overflow="visible" id="d"><path d="M1.078-8.016h1.47l3.546 6.704v-6.704h1.062V0H5.688L2.124-6.703V0H1.078zm0 0"/></symbol><symbol overflow="visible" id="e"><path d="M1.078-8.016h1.094v3.282H6.11v-3.282h1.077V0H6.11v-3.813H2.17V0H1.078zm0 0"/></symbol></defs><g><path fill="#fff" d="M0 0h300v300H0z"/><path d="M35.25 166.64l12.48-3.484" stroke-width="1.2" stroke="#7f4d1a" stroke-miterlimit="10" fill="none"/><path d="M47.73 163.156l12.485-3.48" stroke-width="1.2" stroke="#000" stroke-miterlimit="10" fill="none"/><path d="M23.25 160.14h12v13h-12zm0 0" fill="#fff"/><g fill="#7f4d1a"><use xlink:href="#a" x="23.25" y="170.042"/><use xlink:href="#b" x="30.571" y="170.042"/></g><path d="M60.215 159.676l6.453-25.102M66.766 158.684l5.16-20.082M78.727 177.813l-18.512-18.137M66.668 134.574l24.96-6.965M91.63 127.61l18.515 18.136M89.215 133.777l14.808 14.512M110.145 145.746l-6.454 25.102M110.145 145.746l24.964-6.96M103.69 170.848l-24.963 6.964M99.56 165.672l-19.974 5.57M138.063 139.543l3.226-12.55" stroke-width="1.2" stroke="#000" stroke-miterlimit="10" fill="none"/><path d="M141.29 126.992l3.222-12.55" stroke-width="1.2" stroke="#f00" stroke-miterlimit="10" fill="none"/><path d="M132.156 138.023l3.227-12.55" stroke-width="1.2" stroke="#000" stroke-miterlimit="10" fill="none"/><path d="M135.383 125.473l3.222-12.55" stroke-width="1.2" stroke="#f00" stroke-miterlimit="10" fill="none"/><path d="M135.11 138.785l9.257 9.067" stroke-width="1.2" stroke="#000" stroke-miterlimit="10" fill="none"/><path d="M144.367 147.852l9.254 9.07" stroke-width="1.2" stroke="#00f" stroke-miterlimit="10" fill="none"/><path d="M137.56 107.18h9v13h-9zm0 0" fill="#fff"/><use xlink:href="#c" x="137.559" y="117.081" fill="#f00"/><path d="M153.62 156.922l12.485-3.484" stroke-width="1.2" stroke="#00f" stroke-miterlimit="10" fill="none"/><path d="M166.105 153.438l12.48-3.48" stroke-width="1.2" stroke="#000" stroke-miterlimit="10" fill="none"/><path d="M145.62 150.422h17v13h-17zm0 0" fill="#fff"/><g fill="#00f"><use xlink:href="#d" x="145.621" y="160.323"/><use xlink:href="#e" x="153.604" y="160.323"/></g><path d="M178.586 149.957l4.52-12.144" stroke-width="1.2" stroke="#000" stroke-miterlimit="10" fill="none"/><path d="M183.105 137.813l4.524-12.145" stroke-width="1.2" stroke="#00f" stroke-miterlimit="10" fill="none"/><path d="M198.895 166.063l-20.31-16.106M200.652 159.672l-16.246-12.883" stroke-width="1.2" stroke="#000" stroke-miterlimit="10" fill="none"/><path d="M187.63 125.668l25.893 1.09" stroke-width="1.2" stroke="#00f" stroke-miterlimit="10" fill="none"/><path d="M179.63 119.168h17v13h-17zm0 0" fill="#fff"/><g fill="#00f"><use xlink:href="#d" x="179.629" y="129.069"/><use xlink:href="#e" x="187.612" y="129.069"/></g><path d="M213.523 126.758l3.48 12.484" stroke-width="1.2" stroke="#00f" stroke-miterlimit="10" fill="none"/><path d="M217.004 139.242l3.48 12.48" stroke-width="1.2" stroke="#000" stroke-miterlimit="10" fill="none"/><path d="M208.344 130.895l2.785 9.984" stroke-width="1.2" stroke="#00f" stroke-miterlimit="10" fill="none"/><path d="M211.13 140.88l2.784 9.983" stroke-width="1.2" stroke="#000" stroke-miterlimit="10" fill="none"/><path d="M209.523 120.258h8v13h-8zm0 0" fill="#fff"/><use xlink:href="#d" x="209.523" y="130.159" fill="#00f"/><path d="M220.484 151.723l-21.59 14.34M220.484 151.723l24.293 9.04M244.777 160.762l4.317 25.558M244.777 160.762l19.973-16.516" stroke-width="1.2" stroke="#000" stroke-miterlimit="10" fill="none"/></g></svg>
